source/assets/ui/tabs/ctr_b.svg

<?xml version="1.0" encoding="UTF-8" standalone="no"?>
<!-- Created with Inkscape (http://www.inkscape.org/) -->

<svg
   width="70"
   height="24"
   viewBox="0 0 70 24"
   version="1.1"
   id="SVGRoot"
   xmlns="http://www.w3.org/2000/svg"
   xmlns:svg="http://www.w3.org/2000/svg"
   xmlns:rdf="http://www.w3.org/1999/02/22-rdf-syntax-ns#"
   xmlns:cc="http://creativecommons.org/ns#"
   xmlns:dc="http://purl.org/dc/elements/1.1/">
  <defs
     id="defs1725">
    <clipPath
       id="clipPath4439-1-0">
      <path
         d="m 76.965,496.958 h 257.093 v 52.963 H 76.965 Z"
         id="path4441-7-0" />
    </clipPath>
  </defs>
  <g
     id="layer1"
     transform="translate(-77.1393,-30.827056)">
    <g
       id="g2272"
       transform="matrix(0.07954545,0,0,0.07954545,-53.3152,54.91797)">
      <g
         id="rect2247">
        <path
           id="path4802"
           style="color:#000000;fill:#ffffff;stroke-width:0.0795455;stroke-dashoffset:9.6;-inkscape-stroke:none;paint-order:markers stroke fill"
           d="M 29.591797 5 C 28.379906 5 27.363281 6.0146693 27.363281 7.2265625 L 27.363281 16.773438 C 27.363281 17.98533 28.379906 19 29.591797 19 L 40.408203 19 C 41.620094 19 42.636719 17.98533 42.636719 16.773438 L 42.636719 7.2265625 C 42.636719 6.0146693 41.620094 5 40.408203 5 L 29.591797 5 z M 29.591797 6.2734375 L 40.408203 6.2734375 C 40.937021 6.2734375 41.363281 6.6977443 41.363281 7.2265625 L 41.363281 16.773438 C 41.363281 17.302255 40.937021 17.726562 40.408203 17.726562 L 29.591797 17.726562 C 29.062979 17.726562 28.636719 17.302255 28.636719 16.773438 L 28.636719 7.2265625 C 28.636719 6.6977443 29.062979 6.2734375 29.591797 6.2734375 z M 32.658203 8.453125 C 32.210968 8.453125 31.849609 8.8144836 31.849609 9.2617188 L 31.849609 10.580078 C 31.849609 11.027313 32.210968 11.386719 32.658203 11.386719 C 33.105438 11.386719 33.464844 11.027313 33.464844 10.580078 L 33.464844 9.2617188 C 33.464844 8.8144836 33.105438 8.453125 32.658203 8.453125 z M 37.111328 8.453125 C 36.664093 8.453125 36.304688 8.8144836 36.304688 9.2617188 L 36.304688 10.580078 C 36.304688 11.027313 36.664093 11.386719 37.111328 11.386719 C 37.558563 11.386719 37.919922 11.027313 37.919922 10.580078 L 37.919922 9.2617188 C 37.919922 8.8144836 37.558563 8.453125 37.111328 8.453125 z M 32.615234 13.714844 L 31.363281 13.955078 C 31.511832 14.730614 32.071942 15.298382 32.71875 15.630859 C 33.36555 15.963337 34.123005 16.106685 34.876953 16.103516 C 35.630893 16.10035 36.383682 15.951074 37.025391 15.617188 C 37.6671 15.2833 38.221376 14.71866 38.361328 13.949219 L 37.109375 13.720703 C 37.053447 14.028192 36.844168 14.276689 36.4375 14.488281 C 36.03084 14.699874 35.452133 14.829588 34.871094 14.832031 C 34.290046 14.834473 33.709701 14.710196 33.300781 14.5 C 32.891862 14.289804 32.677264 14.038685 32.615234 13.714844 z "
           transform="matrix(12.571429,0,0,12.571429,1639.9995,-302.85722)" />
      </g>
    </g>
  </g>
  <metadata
     id="metadata2103">
    <rdf:RDF>
      <cc:Work
         rdf:about="">
        <dc:creator>
          <cc:Agent>
            <dc:title>NinStar</dc:title>
          </cc:Agent>
        </dc:creator>
      </cc:Work>
    </rdf:RDF>
  </metadata>
</svg>

<?xml version="1.0" encoding="UTF-8"?>
<svg id="a" width="70" height="24" version="1.1" viewBox="0 0 70 24" xmlns="http://www.w3.org/2000/svg" xmlns:cc="http://creativecommons.org/ns#" xmlns:dc="http://purl.org/dc/elements/1.1/" xmlns:rdf="http://www.w3.org/1999/02/22-rdf-syntax-ns#"><g transform="translate(-77.139 -30.827)"><g transform="matrix(.079545 0 0 .079545 -53.315 54.918)"><path transform="matrix(12.571 0 0 12.571 1640 -302.86)" d="m29.592 5c-1.2119 0-2.2285 1.0147-2.2285 2.2266v9.5469c0 1.2119 1.0166 2.2266 2.2285 2.2266h10.816c1.2119 0 2.2285-1.0147 2.2285-2.2266v-9.5469c0-1.2119-1.0166-2.2266-2.2285-2.2266h-10.816zm0 1.2734h10.816c0.52882 0 0.95508 0.42431 0.95508 0.95312v9.5469c0 0.52882-0.42626 0.95312-0.95508 0.95312h-10.816c-0.52882 0-0.95508-0.42431-0.95508-0.95312v-9.5469c0-0.52882 0.42626-0.95312 0.95508-0.95312zm3.0664 2.1797c-0.44724 0-0.80859 0.36136-0.80859 0.80859v1.3184c0 0.44724 0.36136 0.80664 0.80859 0.80664s0.80664-0.35941 0.80664-0.80664v-1.3184c0-0.44724-0.35941-0.80859-0.80664-0.80859zm4.4531 0c-0.44724 0-0.80664 0.36136-0.80664 0.80859v1.3184c0 0.44724 0.3594 0.80664 0.80664 0.80664s0.80859-0.35941 0.80859-0.80664v-1.3184c0-0.44724-0.36136-0.80859-0.80859-0.80859zm-4.4961 5.2617-1.252 0.24023c0.14855 0.77554 0.70866 1.3433 1.3555 1.6758 0.6468 0.33248 1.4043 0.47583 2.1582 0.47266 0.75394-0.003166 1.5067-0.15244 2.1484-0.48633 0.64171-0.33389 1.196-0.89853 1.3359-1.668l-1.252-0.22852c-0.055928 0.30749-0.26521 0.55599-0.67188 0.76758-0.40666 0.21159-0.98537 0.34131-1.5664 0.34375-0.58105 0.002442-1.1614-0.12184-1.5703-0.33203-0.40892-0.2102-0.62352-0.46132-0.68555-0.78516z" color="#000000" fill="#fff" stroke-dashoffset="9.6" stroke-width=".079546" style="-inkscape-stroke:none;paint-order:markers stroke fill"/></g></g><metadata><rdf:RDF><cc:Work rdf:about=""><dc:creator><cc:Agent><dc:title>NinStar</dc:title></cc:Agent></dc:creator></cc:Work></rdf:RDF></metadata></svg>
